X: 21099
T: Kamikaze Pigeon
R: reel
M: 4/4
K: Dmajor
|:d2fd edfe|d2fd edBA|d2fd edBA|dB~B2 gBfe|
d2fd edfe|dfed edBA|bf~f2 afdB|1 ABdf edBc:|2 ABdf eAcd||
|:e4 e3f|eBde faaf|e2de egag|fB~B2 dAcd|
e3e edfd|eBde faaf|bf~f3 afba|1 fedB eAcd:|2 fedB edBc||

